public/assets/images/icons/red/move_up/doctoral_cap.svg

<svg width="16" height="16" xmlns="http://www.w3.org/2000/svg" viewBox="0 0 16 16" shape-rendering="geometricPrecision" fill="#cb1800"><defs><mask id="a"><rect fill="#fff" width="100%" height="100%"/><path fill="#000" d="M12.892-.396l-4.507 4.51 2.471 2.471 2.038-2.036 2.037 2.035 2.473-2.47z"/></mask></defs><path d="M12.894 3.136l2.037 2.035 1.058-1.057-3.097-3.096-3.093 3.096 1.057 1.057z"/><g mask="url(#a)"><path d="M7.999 3.007L.701 5.591 3.853 7.29l4-1.688.663.303L4.52 7.651l3.479 1.873 7.3-3.933zM3.336 7.813l-1.692.602 1.447.779.245.133z"/><path d="M12.661 7.813l-4.662 2.512-3.001-1.617v1.514l3.001 1.617 4.692-2.529 1.665-.895zm-8.762 4.729l.608.451v-5.33l-.608-.367z"/></g></svg>

<svg width="16" height="16" xmlns="http://www.w3.org/2000/svg" viewBox="0 0 16 16" shape-rendering="geometricPrecision" fill="#cb1800"><defs><mask id="a"><rect fill="#fff" width="100%" height="100%"/><path fill="#000" d="M12.892-.396l-4.507 4.51 2.47 2.47 2.04-2.035 2.036 2.034 2.474-2.47z"/></mask></defs><path d="M12.894 3.136L14.93 5.17l1.06-1.056-3.098-3.096L9.8 4.114l1.056 1.057"/><g mask="url(#a)"><path d="M8 3.007L.7 5.59l3.153 1.7 4-1.688.663.303L4.52 7.65 8 9.525l7.3-3.933M3.336 7.813l-1.692.602 1.447.78.246.132"/><path d="M12.66 7.813L8 10.325 4.997 8.708v1.514l3 1.617 4.693-2.53 1.666-.895M3.9 12.542l.607.45v-5.33L3.9 7.297"/></g></svg>
